www/assets/icons/directions_boat_filled.svg

<svg xmlns="http://www.w3.org/2000/svg" width="24" height="24" viewBox="0 0 24 24" fill='currentColor'><path d="M20 21c-1.39 0-2.78-.47-4-1.32-2.44 1.71-5.56 1.71-8 0C6.78 20.53 5.39 21 4 21H2v2h2c1.38 0 2.74-.35 4-.99a8.75 8.75 0 0 0 8 0c1.26.65 2.62.99 4 .99h2v-2zM3.95 19H4c1.6 0 3.02-.88 4-2 .98 1.12 2.4 2 4 2s3.02-.88 4-2c.98 1.12 2.4 2 4 2h.05l1.9-6.68c.11-.37.04-1.06-.66-1.28L20 10.62V6c0-1.1-.9-2-2-2h-3V1H9v3H6c-1.1 0-2 .9-2 2v4.62l-1.29.42c-.63.19-.81.84-.66 1.28zM6 6h12v3.97L12 8 6 9.97z"/></svg>

<svg width="24" height="24" viewBox="0 0 24 24" xmlns="http://www.w3.org/2000/svg" fill='currentColor'><path d="M20 21C18.61 21 17.22 20.53 16 19.68C13.56 21.39 10.44 21.39 8 19.68C6.78 20.53 5.39 21 4 21H2V23H4C5.38 23 6.74 22.65 8 22.01C10.52 23.3 13.48 23.3 16 22.01C17.26 22.66 18.62 23 20 23H22V21H20ZM3.95 19H4C5.6 19 7.02 18.12 8 17C8.98 18.12 10.4 19 12 19C13.6 19 15.02 18.12 16 17C16.98 18.12 18.4 19 20 19H20.05L21.95 12.32C22.06 11.95 21.99 11.26 21.29 11.04L20 10.62V6C20 4.9 19.1 4 18 4H15V1H9V4H6C4.9 4 4 4.9 4 6V10.62L2.71 11.04C2.08 11.23 1.9 11.88 2.05 12.32L3.95 19ZM6 6H18V9.97L12 8L6 9.97V6Z"/></svg>
